X:1
T:[ID 7-12]
T:[ID 7-12]
T:Bezeichnung standardisiert: Menuett Menuet 4.
T:Urheber unbekannt Datum in der hier transkribierten schriftlichen Quelle: 1776 - 1791
C:Urheber unbekannt
C:Datum in der hier transkribierten schriftlichen Quelle: 1776 - 1791
L:1/8
M:3/4
K:G
V:1 treble 
V:1
 GA B2 c2 | d2 B2 c2 | d2 (3gab ag | Tf4 e2 | d2 (3bag fe | d2 c2 B2 | c2 (3edc (3Bcd | B4 A2 :: %8
 de f2 g2 | a2 f2 g2 | a2 (3cBA (3dcB | A3 gfg | a2 (3cBA (3dcB | A4 a2 | bf g2 d2 | e2 f2 gd | %16
 ec B2 cA | A4 G2 :| %18

